X:50
T:Sporting Paddy
M:C|
R:reel
E:7
I:speed 350
K:ADor
|EAAB GABG|EAAB G2ED|EA~A2 GABd|edge dBAG|\
EAAB GABG|EAAB G2ED|EA~A2 GABd|edge d2||*
ef|ge~e2 gede|ge~e2 a2ba|ge~e2 ged2|efge d2ef|\
ge~e2 gede|ge~e2 a2ga|bgab gabg|efge dBAG||**
<end>
<start>
